X:86
T:Cooley's
M:C|
L:1/8
Q:120
R:Reel (Key of Edor)
K:Edor
"Em"EBBA ~B2EB | ~B2AB dBAG | "D"(3FED AD BDAD | (3FED FA BAFD |
"Em"EBBA ~B2EB | ~B2AB defg | "D"af (3gfe dBAF |1 DEFD "Em"E2ED :|2 DEFD "Em"Egfg |:
"Em"eB~B2 gBfB | eB~B2 gedB | "D"~A2FA DAFA | ~A2FA defg|
"Em"eB~B2 gBfB | eB~B2 defg | "D"af (3gfe dBAF |1 DEFD "Em"Egfg :|2 DEFD "Em"E2ED |]
